X: 1894
T: Stan Treacy's "Surprise" Schottische
B: australian traditional tunes wiki
M:4/4
L:1/8
R: Schottische
Q: 1/4=100
K:G
V:1 
D2|"G"B3c/d/ "D"c3B/c/|"G"d2g>fg2G>A|B3c/d/ "C"c3B/c/|"G"d>e d<B"D"A3G/A/|
"G"B3c/d/ "D"c3B/c/|"G"d2g>fg3f/g/|"D"a>g f>g e>c A<F|"G"G2G2G2f>g||
"G"a>g d>B G>B d<g|"C"f2e2e3f/g/|"G"a>g dB GB d<B|"D"A2A2A3f/g/|
"G"a>g d>B G>B d<g|"C"f2e2e2f>g|"D"a>g f>g e>c A<F|"G"G2G2G2z2||
% abcbook-tune_id 6342d53a96d61f6d23c7ef5c


% abcbook-boost 0
% abcbook-tablature 
% abcbook-transpose 
% abcbook-lastupdated 1665324391217
% abcbook-soundfonts 
% abcbook-repeats 1
% NFF Book 2007

